X: 10604
T: Doutlace, The
R: reel
M: 4/4
K: Gmajor
A2 eA cAdA|BAGA BG ~G2|A2 eA cAeA|decd BA A2|
A2 eA cAeA|GABG AGEG|AGEG FGAB|c2 BG AFDF:|
|:EAAB cABc|dBGA BdeB|cAAB cded|eAAB cedB|
ecAB cAAB|cADA BAGF|EFGE FGAB|1 cABG A2 AB:|2 cABG A4||
cAGA EA A2|cdef gedB|ABAG EA A2|dcde fdAG|
|:cAGE FGAB|c2 cd efaa|gefa gedc|BABG FAE<G|
EFGd EAGE|c2 AG EGGA|Ec ~c2 cdeg|~f3e decd||

